Modules/BetterCms.Module.Root/Scss/assets/icons/editor-h5.svg

<svg height="11" width="20" xmlns="http://www.w3.org/2000/svg" viewBox="0 0 20 11"><path fill="#303646" fill-rule="evenodd" d="m0 10.81h1.9v-4.55h5.16v4.55h1.91v-10.81h-1.91v4.5h-5.16v-4.5h-1.9v10.81m15.06.19c2.39 0 4.01-1.45 4.01-3.66v-.03c0-2.29-1.67-3.4-3.77-3.4-.72 0-1.2.12-1.71.31l.17-2.54h4.83v-1.68h-6.47l-.31 5.3 1.14.76c.56-.27 1.22-.48 2-.48 1.31 0 2.24.69 2.24 1.79v.03c0 1.13-.85 1.87-2.15 1.87-1.01 0-1.92-.49-2.78-1.3l-1.18 1.38c1.02.99 2.32 1.65 3.98 1.65"/></svg>

<?xml version="1.0" encoding="utf-8"?>
<!-- Generator: Avocode 2.4.5 - http://avocode.com -->
<svg height="11" width="20" xmlns:xlink="http://www.w3.org/1999/xlink" xmlns="http://www.w3.org/2000/svg" viewBox="0 0 20 11">
    <path fill="#303646" fill-rule="evenodd" d="M 0 10.81 L 1.9 10.81 L 1.9 6.26 L 7.06 6.26 L 7.06 10.81 L 8.97 10.81 L 8.97 0 L 7.06 0 L 7.06 4.5 L 1.9 4.5 L 1.9 0 L 0 0 L 0 10.81 Z M 15.06 11 C 17.45 11 19.07 9.55 19.07 7.34 L 19.07 7.31 C 19.07 5.02 17.4 3.91 15.3 3.91 C 14.58 3.91 14.1 4.03 13.59 4.22 L 13.76 1.68 L 18.59 1.68 L 18.59 0 L 12.12 0 L 11.81 5.3 L 12.95 6.06 C 13.51 5.79 14.17 5.58 14.95 5.58 C 16.26 5.58 17.19 6.27 17.19 7.37 L 17.19 7.4 C 17.19 8.53 16.34 9.27 15.04 9.27 C 14.03 9.27 13.12 8.78 12.26 7.97 L 11.08 9.35 C 12.1 10.34 13.4 11 15.06 11 L 15.06 11 Z M 15.06 11" />
</svg>
